X:1
T:Title
%%score ( 1 2 ) { ( 3 5 ) | ( 4 6 ) }
L:1/8
Q:1/4=130
M:4/4
K:F
V:1 treble nm="Grand Piano, Staff 1"
V:2 treble 
V:3 bass nm="Choir Pad, St. Cross, LM"
V:5 bass 
V:4 bass 
V:6 bass 
V:1
 [DF]4 [DF]2 [EG]2 | [FA]6 [Fd]2 | F2 z2 B4 | [FA]8 | [FA]4 [EA]2 [DB]2 | [Cc]4 F4 | [FA]4 [EG]4 | %7
w: By~John~Bacchus~Dykes,~1861 * *|||||||
 F6 [CA]2 | [CA]6 [DA]2 | [DG]4 [^CA]4 | z4 G4 | [^CE]8 | D4 D2 D2 | A6 [DG]2 | [DF]4 [^CE]4 | %15
w: ||||||||
 D8 |] %16
w: |
V:2
 x8 | x8 | c2- [Cc]2 D2 E2 | x8 | x8 | x8 | x8 | x8 | x8 | x8 | [DF]4 E2 D2 | x8 | x8 | x8 | x8 | %15
 x8 |] %16
V:3
 A,4 A,2 C2 | C6 z2 | A,6 z2 | A,8 | F,4 F,2 F,2 | F,2 G,2 A,2 B,2 | C6 z2 | A,6 A,2 | A,6 A,2 | %9
 B,4 A,4 | A,4 B,4 | A,8 | D,4 D,2 D,2 | A,6 B,2 | A,4 G,4 | F,8 |] %16
V:4
 D,4 D,2 C,2 | F,6 B,,2 | C,4 z2 G,2 | F,8 | D,4 C,2 B,,2 | A,,4 D,4 | C,4 z2 B,2 | F,6 F,2 | %8
 F,6 F,2 | E,4 A,,4 | D,4 G,,4 | A,,8 | z8 | z4 z2 A,,2 | A,,4 A,,4 | D,8 |] %16
V:5
 x8 | z4 z2 B,2- | B,2 z2 z4 | x8 | x8 | x8 | x8 | x8 | x8 | x8 | x8 | x8 | x8 | x8 | x8 | x8 |] %16
V:6
 x8 | x8 | z4 C,4 | x8 | x8 | x8 | z4 C,4 | x8 | x8 | x8 | x8 | x8 | x8 | x8 | x8 | x8 |] %16

